X: 1
T:Lexie McAskill
M:4/4
L:1/8
C:Dr. John McAskill
R:Reel
K:Em
a|"Am"e2 e2 de ed|"Am"e2 dB "G"GB Bd|"Am"e2 e2 de ed|1"Em" eg "D"fd "Em"
e2 ea:|2"Em" eg "D"fd "Em"e2 ef|!
|:"Am"g2 f2 e2 dB|"Am"A2 dB "G"GB Be|"Am"g2 f2 e2 dB|1"Em" eg "D"fd "Em"
e2 ef:|2"Em" eg "D"fd "Em"e2 ea|!
|:"Am"e>e e2 e2 dB|"Am"AA AB "Em"GA Bd|"Am"e>e e2 e2 ed|1"Em" eg "D"fd "
Em"e2 ea:|2"Em" eg "D"fd "Em"e2 g2|!
|:"Am"ae ea e<edB|"Am"A2 dB "G"GB Be|"Am"ae ea e<edB|1"Em" eg "D"fd "Em"
e2 g2|"Em" eg "D"fd "Em"e2||
